material/.icons/material/podium-gold.svg

<svg xmlns="http://www.w3.org/2000/svg" viewBox="0 0 24 24"><path d="M12 7.09l2.45 1.49-.65-2.81L16 3.89l-2.89-.25L12 1l-1.13 2.64L8 3.89l2.18 1.88-.68 2.81L12 7.09M15 23H9V10h6v13M1 17v6h6v-6H1m4 4H3v-2h2v2m12-8v10h6V13h-6m4 8h-2v-6h2v6z"/></svg>

<?xml version="1.0" encoding="UTF-8"?><!DOCTYPE svg PUBLIC "-//W3C//DTD SVG 1.1//EN" "http://www.w3.org/Graphics/SVG/1.1/DTD/svg11.dtd"><svg xmlns="http://www.w3.org/2000/svg" xmlns:xlink="http://www.w3.org/1999/xlink" version="1.1" id="mdi-podium-gold" width="24" height="24" viewBox="0 0 24 24"><path d="M12,7.09L14.45,8.58L13.8,5.77L16,3.89L13.11,3.64L12,1L10.87,3.64L8,3.89L10.18,5.77L9.5,8.58L12,7.09M15,23H9V10H15V23M1,17V23H7V17H1M5,21H3V19H5V21M17,13V23H23V13H17M21,21H19V15H21V21Z" /></svg>
